X:1
T:Chaconne
T:Chaconne
T:For Flute
T:J·S Bach
T:x
T:no
T:no
T:no
T:no
T:no
T:no
T:no
T:no
T:no
C:J·S Bach
Z:x
Z:no
%%score ( 1 2 )
L:1/8
Q:1/4=60
M:3/4
K:Bb
V:1 treble nm="长笛" snm="Fl."
V:2 treble 
V:1
{/G} d3 d{/c} a2 |{/c} a3 a{/B} b2 |{/B} g3 f{/c} e2 |{/B} d2{/^F} c/B/A/B/ c/A/B/G/ | %4
{/B} d3 d{/c} a2 |{/c} a3 a{/B} b2 |{/B} g3 g{/A} e'2 |{/A} d'3/2c'/4b/4 c'>a{/b} G3/2 z/ | %8
 z4{/c} a>B |{/c} a>e d>c{/B} a>A |{/B} g>b a3/2{/B}g/{/A} g>G |{/A} ^f>c B3/2{/A}d'/{/g} b>A | %12
 B3/2c/4d/4 e>d{/c} a>B |{/c} a>e d>c{/B} a>A |{/B} g>b a3/2{/A}^f/{/B} g3/2{/c}a/ | g2 ^f>g G>a | %16
 b3/2c'/4d'/4 e'>b a>e' | d'>c' d'>=b c'>_b | a3/2g/4^f/4 g>a b>c' | a>b c'>a b3/2g/4a/4 | %20
 b3/2c'/4d'/4 e'>b a>e' | d'>c' d'>=b c'>_b | a3/2g/4^f/4 g3/2{/^c}a/{/d} b>c' | %23
{/d} a3/2^f/4=e/4 f>=c Bb | ag ^fg cd/e/ | ^Fe dc Bc/d/ | EG cg/^f/ gB | %27
 A/B/c/e/ d/c/B/A/ B/d/g/b/ | b/a/c'/b/ a/g/^f/g/ c/e/=B/c/ | ^F/A/c/e/ d/c/a/c/ _B/F/G/D/ | %30
 E/G/c/d/ e/_a/^f/g/ ^c/=e/g/b/ | =a/=c'/^f/g/ D/A/g/f/ gb | e'd' ^c'G ^Fa | d'=c' =bF =Eg | %34
 c'_b aE D/b/a/g/ | ^fd ac B/G/B/d/ | g/b/e'/d'/ ^c'/=e'/c'/a/ ^f/a/d'/=c'/ | %37
 =b/d'/b/f/ d/=B/G/F/ =E/G/c/B/ | c/_a/g/^f/ _e'/d'/^c'/d'/ b/=a/g/=f/ | %39
 _e/d/^c/d/ ^F/=c/_B/A/ B/G/A/B/ | c/d/=e/^f/ g/B/A/G/ D/A/g/f/ | G/=B/d/f/ f/_e/f/d/ e/c/_B/_A/ | %42
 G/F/E/D/ C/c/_a/g/ ^f/=a/d/c/ | B/g/=A/G/ D/A/g/^f/ c'/a/b/f/ | g/f/e/d/ c/B/A/G/ ^F/e/d/c/ | %45
 =B/G/d/G/ F/E/F/D/ E/C/D/E/ | F/G/A/=B/ c/d/e/d/ ^c/d/A/_B/ | c/^F/G/^C/ D/B/A/F/ G/g/d/c/ | %48
 B/A/G/=F/ E/g/c/B/ A/f/c/B/ | A/G/F/E/ D/f/B/_A/ G/e/B/A/ | G/F/E/D/ C/e/A/G/ ^F/D/F/A/ | %51
 d/A/d/^f/ a/c/d/A/ B/G/B/d/ | g/d/g/b/ e/c'/d'/e'/ a/F/A/c/ | f/c/f/a/ d/b/c'/d'/ g/E/G/B/ | %54
 e/B/e/g/ c/a/b/c'/ ^f/d/f/a/ | d'/a/d'/^f'/ a'/c'/b/a/ b z | z b c' z a z | z a b z g z | %58
 z g a z dg | g/^f/g/=e/ d'/c'/d'/a/ b z | z z E/c/g/e'/ a z | z z D/B/f/d'/ z z | %62
 z z C/A/=e/c'/ D/A/^f/c'/ | D/B/g/b/ D/c/^f/a/ g/d/4c/4B/A/ | %64
 G/F/E/D/ E/g/4=f/4e/4d/4c/4B/4 A/c/4B/4A/G/ | F/E/D/C/ D/f/4e/4d/4c/4B/4_A/4 G/B/4A/4G/F/ | %66
 E/G/4F/4E/D/ C/e/4d/4c/4B/4A/4G/4 ^F/4=E/4D/4E/4F/4G/4A/4B/4 | %67
 c/4d/4_e/4d/4c/4B/4A/4G/4 ^F/a/4g/4^f/4=e/4d/4c/4 B/G/4A/4B/d/ | %68
 B/G/B/d/ _e/4=f/4g/4a/4b/4c'/4d'/4e'/4 a/F/4G/4A/c/ | %69
 A/F/A/c/ d/4e/4f/4g/4a/4b/4c'/4d'/4 g/E/4F/4G/B/ | %70
 G/E/G/B/ c/4d/4e/4f/4g/4a/4b/4c'/4 ^f/4e'/4d'/4c'/4b/4a/4g/4=f/4 | %71
 e/4d/4c/4B/4A/4G/4^F/4=E/4 D/4E/4F/4G/4A/4B/4c/4A/4 B/4G/4A/4B/4c/4d/4=e/4^f/4 | %72
 g/4=e/4^f/4g/4a/4b/4c'/4d'/4 _e'/G/=F/E/ F/4G/4A/4=B/4c/4d/4_e/4=f/4 | %73
 g/4d/4e/4=f/4g/4a/4=b/4c'/4 d'/F/E/D/ E/4G/4A/4=B/4c/4d/4e/4f/4 | %74
 g/4c/4d/4e/4f/4g/4a/4=b/4 c'/4d'/4e'/4d'/4c'/4_b/4a/4g/4 ^f/4d'/4c'/4b/4a/4g/4f/4=e/4 | %75
 d/4=e/4^f/4g/4a/4b/4c'/4d'/4 _e'/4c'/4a/4f/4d/4c/4B/4A/4 G/d/g/a/ | %76
 b/g/_e/d/ ^c/=e/g/b/ F/A/d/f/ | a/f/d/=c/ =B/d/f/_a/ E/G/c/e/ | g/e/c/_B/ A/c/e/^f/ D/G/B/d/ | %79
 g/d/B/G/ D/A/c/^f/ G/e'/e'/^c'/ | ^c'/_b/b/g/ g/=e/^c/A/ ^F/d'/d'/=b/ | %81
 =b/_a/a/=f/ f/d/=B/G/ =E/c'/c'/a/ | _a/^f/f/_e/ e/c/=A/^F/ D/F/F/A/ | %83
 A/c/4B/4c/e/4d/4 e/^f/4g/4=a/c/ F/4A/4=B/4^c/4d/4c/4B/4A/4 | %84
 f/4=e/4d/4^c/4d/4e/4f/4g/4 a/4g/4f/4e/4_b/4a/4g/4f/4 =c/4e/4^f/4^g/4a/4g/4f/4e/4 | %85
 c'/4=b/4a/4^g/4a/4b/4c'/4d'/4 =e'/4d'/4c'/4b/4=f'/4e'/4d'/4^c'/4 d'/4e'/4f'/4e'/4d'/4f'/4e'/4d'/4 | %86
 f'/4=e'/4d'/4f'/4e'/4d'/4f'/4e'/4 d'/4g'/4f'/4e'/4d'/4=c'/4_b/4a/4 g/4a/4b/4a/4g/4b/4a/4g/4 | %87
 b/4a/4g/4b/4a/4g/4b/4a/4 g/4f/4=e/4d/4^c/4=B/4A/4G/4 _B/4G/4d'/4G/4B/4G/4d'/4G/4 | %88
 B/4G/4d'/4G/4B/4G/4d'/4G/4 B/4G/4d'/4G/4B/4G/4d'/4G/4 A/4G/4c'/4G/4A/4G/4c'/4G/4 | %89
 A/4G/4c'/4G/4A/4G/4c'/4G/4 A/4^f/4c'/4f/4A/4f/4c'/4f/4 G/4G/4b/4G/4G/4G/4b/4G/4 | %90
 G/4G/4b/4G/4G/4G/4b/4G/4 d/4G/4b/4G/4d/4G/4b/4G/4 C/4e/4a/4e/4C/4d/4b/4d/4 | %91
 C/4c/4a/4c/4C/4B/4g/4B/4 D/4A/4g/4A/4D/4A/4^f/4A/4 G/4B/4g/4B/4G/4B/4g/4B/4 | %92
 D/4B/4g/4B/4D/4B/4g/4B/4 E/4B/4g/4B/4E/4B/4g/4B/4 F/4=B/4_a/4B/4F/4B/4a/4B/4 | %93
 E/4=B/4_a/4B/4E/4B/4a/4B/4 D/4B/4a/4B/4D/4B/4a/4B/4 E/4c/4g/4c/4E/4c/4g/4c/4 | %94
 D/4B/4g/4B/4D/4B/4g/4B/4 C/4A/4g/4A/4C/4A/4g/4A/4 D/4B/4g/4B/4D/4B/4g/4B/4 | %95
 D/4A/4g/4A/4D/4A/4g/4A/4 D/4c/4^f/4c/4D/4c/4f/4c/4 G/4B/4g/4B/4G/4B/4g/4B/4 | %96
 G/4B/4d/4B/4G/4B/4d/4B/4 G/4B/4e/4B/4G/4B/4e/4B/4 G/4=B/4f/4B/4G/4B/4f/4B/4 | %97
 G/4=B/4e/4B/4G/4B/4e/4B/4 G/4B/4d/4B/4G/4B/4d/4B/4 G/4c/4e/4c/4G/4c/4e/4c/4 | %98
 A/4^f/4e'/4f/4A/4f/4e'/4f/4 _B/4g/4d'/4g/4B/4g/4d'/4g/4 c/4g/4c'/4g/4c/4g/4b/4g/4 | %99
 d/4g/4a/4g/4d/4g/4a/4g/4 d/4^f/4a/4f/4d/4f/4a/4f/4 G/4g/4b/4g/4G/4g/4b/4g/4 | %100
 G/4d/4b/4d/4G/4d/4b/4d/4 G/4e/4b/4e/4G/4e/4b/4e/4 G/4f/4=b/4f/4G/4f/4b/4f/4 | %101
 G/4e/4=b/4e/4G/4e/4b/4e/4 G/4d/4b/4d/4G/4d/4b/4d/4 G/4e/4c'/4e/4G/4e/4c'/4e/4 | %102
 G/4d/4b/4d/4G/4d/4b/4d/4 (6:4:6^F/4c/4d/4a/4d/4c/4(6:4:6F/4c/4d/4a/4d/4c/4 (6:4:6G/4B/4d/4b/4d/4B/4(6:4:6G/4B/4d/4b/4d/4B/4 | %103
 (6:4:6D/4A/4^f/4f/4A/4D/4(6:4:6D/4A/4f/4f/4A/4D/4 (6:4:6D/4A/4f/4f/4A/4D/4(6:4:6D/4A/4f/4f/4A/4D/4 (6:4:6G/4B/4g/4g/4B/4G/4(6:4:6G/4B/4g/4g/4B/4G/4 | %104
 (6:4:6G/4d/4b/4b/4d/4G/4(6:4:6G/4d/4b/4b/4d/4G/4 (6:4:6G/4d/4=f/4b/4f/4d/4(6:4:6G/4d/4f/4b/4f/4d/4 (6:4:6C/4c/4e/4b/4e/4c/4(6:4:6C/4c/4e/4b/4e/4c/4 | %105
 (6:4:6C/4c/4e/4a/4e/4c/4(6:4:6C/4c/4e/4a/4e/4c/4 (6:4:6D/4B/4_a/4a/4B/4D/4(6:4:6D/4B/4a/4a/4B/4D/4 (6:4:6E/4B/4a/4a/4B/4E/4(6:4:6E/4B/4a/4a/4B/4E/4 | %106
 (6:4:6E/4B/4g/4e'/4g/4B/4(6:4:6E/4B/4g/4e'/4g/4B/4 (6:4:6E/4c/4g/4a/4g/4c/4(6:4:6E/4c/4g/4a/4g/4c/4 (6:4:6D/4d/4g/4a/4g/4d/4(6:4:6D/4d/4g/4a/4g/4d/4 | %107
 (6:4:6D/4A/4^f/4d'/4f/4A/4(6:4:6D/4A/4f/4d'/4f/4A/4 (6:4:6D/4A/4f/4c'/4f/4A/4(6:4:6D/4A/4f/4c'/4f/4A/4 (6:4:6G/4d/4b/4b/4d/4G/4(6:4:6G/4d/4b/4b/4d/4G/4 | %108
 (6:4:6G/4d/4g/4=b/4g/4d/4(6:4:6G/4d/4g/4b/4g/4d/4 (6:4:6G/4=f/4=b/4b/4f/4G/4(6:4:6G/4f/4b/4b/4f/4G/4 (6:4:6G/4e/4c'/4c'/4e/4G/4(6:4:6G/4e/4c'/4c'/4e/4G/4 | %109
 (6:4:6G/4=e/4^c'/4c'/4e/4G/4(6:4:6G/4e/4c'/4c'/4e/4G/4 (6:4:6A/4g/4c'/4c'/4g/4A/4(6:4:6A/4g/4c'/4c'/4g/4A/4 (6:4:6B/4f/4d'/4d'/4f/4B/4(6:4:6B/4f/4d'/4d'/4f/4B/4 | %110
 (6:4:6=B/4_a/4f'/4f'/4a/4B/4(6:4:6B/4a/4f'/4f'/4a/4B/4 (6:4:6c/4g/4=e'/4e'/4g/4c/4(6:4:6c/4g/4e'/4e'/4g/4c/4 (6:4:6^c/4b/4g'/4g'/4b/4c/4(6:4:6c/4b/4g'/4g'/4b/4c/4 | %111
 (6:4:6d/4a/4g'/4g'/4a/4d/4(6:4:6d/4a/4g'/4g'/4a/4d/4 (6:4:6d/4a/4^f'/4f'/4a/4d/4(6:4:6d/4a/4f'/4f'/4a/4d/4 (6:4:6G/4b/4g'/4g'/4b/4G/4(6:4:6G/4b/4g'/4g'/4b/4G/4 | %112
 (6:4:6e/4b/4g'/4g'/4b/4e/4(6:4:6e/4b/4g'/4g'/4b/4e/4 (6:4:6d/4b/4g'/4g'/4b/4d/4(6:4:6d/4b/4g'/4g'/4b/4d/4 (6:4:6^c/4a/4g'/4g'/4a/4c/4(6:4:6c/4a/4g'/4g'/4a/4c/4 | %113
 (6:4:6d/4a/4^f'/4f'/4a/4d/4(6:4:6d/4a/4f'/4f'/4a/4d/4 (6:4:6c/4a/4f'/4f'/4a/4c/4(6:4:6c/4a/4f'/4f'/4a/4c/4 (6:4:6=B/4g/4=f'/4f'/4g/4B/4(6:4:6B/4g/4f'/4f'/4g/4B/4 | %114
 (6:4:6c/4g/4=e'/4e'/4g/4c/4(6:4:6c/4g/4e'/4e'/4g/4c/4 (6:4:6B/4g/4e'/4e'/4g/4B/4(6:4:6B/4g/4e'/4e'/4g/4B/4 (6:4:6A/4^f/4_e'/4e'/4f/4A/4(6:4:6A/4f/4e'/4e'/4f/4A/4 | %115
 (6:4:6B/4g/4d'/4d'/4g/4B/4(6:4:6B/4g/4d'/4d'/4g/4B/4 (6:4:6A/4^f/4c'/4c'/4f/4A/4(6:4:6A/4f/4c'/4c'/4f/4A/4 (6:4:6G/4g/4=b/4b/4g/4G/4(6:4:6G/4g/4b/4b/4g/4G/4 | %116
 (6:4:6D/4d/4=f/4b/4f/4d/4(6:4:6D/4d/4f/4b/4f/4d/4 (6:4:6=E/4c/4g/4b/4g/4c/4(6:4:6E/4c/4g/4b/4g/4c/4 (6:4:6F/4c/4f/4a/4f/4c/4(6:4:6F/4c/4f/4a/4f/4c/4 | %117
 (6:4:6C/4c/4_a/4a/4c/4C/4(6:4:6C/4c/4a/4a/4c/4C/4 (6:4:6D/4B/4a/4a/4B/4D/4(6:4:6D/4B/4a/4a/4B/4D/4 (6:4:6E/4B/4g/4g/4B/4E/4(6:4:6E/4B/4g/4g/4B/4E/4 | %118
 (6:4:6E/4c/4g/4g/4c/4E/4(6:4:6E/4c/4g/4g/4c/4E/4 (6:4:6D/4B/4g/4g/4B/4D/4(6:4:6D/4B/4g/4g/4B/4D/4 (6:4:6^C/4A/4g/4g/4A/4C/4(6:4:6C/4A/4g/4g/4A/4C/4 | %119
 (6:4:6D/4A/4g/4g/4A/4D/4(6:4:6D/4A/4g/4g/4A/4D/4 (6:4:6D/4A/4^f/4f/4A/4D/4(6:4:6D/4A/4f/4f/4A/4D/4 Gb/4a/4g/4a/4 | %120
 g/4=f/4g/4f/4e/4f/4e/4d/4 e/4f/4g/4a/4b/G/ Fa/4g/4f/4g/4 | %121
 f/4e/4f/4e/4d/4e/4d/4c/4 d/4e/4f/4g/4_a/F/ Eg/4f/4e/4f/4 | %122
 e/4d/4e/4d/4c/4d/4c/4B/4 c/4d/4e/4f/4g/E/ D/4d/4=e/4^f/4g/D/ | %123
 C/4d/4=e/4^f/4g/C/ D/4g/4f/4e/4f/c/ B/A/G/^F/ | G/B/c/d/ _e/d/e/c/{/c} a2 |{/c} a3 a{/B} b2 | %126
{/B} g3 g{/c} e'2 |{/B} d'2{/A} c'2{/d} c'2 |{/d} =b2 F_b{/c} b2 |{/c} a2 _E_a{/B} a2 | %130
{/B} g2 Dg ^Cg | T^f3 g"^A Tiny Stop" g2 | =B3 c A2 | =B3 c/d/ G2 | A3 =B/c/ BA | A3 d =B2 | %136
{/=B} =ed cB A2 | =B/c/d/c/ BA G2 | Ac/=B/ AG{/c} ^fg | A3 d =BA | GA =B^c{/A} d=e | %141
{/A} ^fg =e{/D}f{/=B} g=b |{/c} ag ^f{/c}=e{/B} d{/G}e |{/A} ^f{/=B}g{/c} a{/A}f{/B} gA | %144
 =b3 b a2 | d'3 c' =ba | c'=b =e'd' c'b | z2 z2 g/^f/=e/d/ | ^c/=e/g/=b/ a{/c}a{/d} a z | %149
 z2 =B{/B}a{/B} g z | z2 A{/A}g{/A} ^f/=e/d/e/ | ^f/a/c'/=e'/ d'/c'/=b/a/ b/d'/b/g/ | %152
 d/g/d/=B/ G/B/A/G/ ^F/d'/a/^f/ | d/^f/d/A/ ^F/A/G/F/ =E/^c'/g/=e/ | %154
 ^c/=e/c/A/ =E/G/^F/E/ D/E/F/G/ | A/^F/D/F/ A/=c/=B/A/ B/G/D/G/ | =B/G/d/B/ g/d/=b/g/ d'/a/^f/a/ | %157
 d'/a/^f'/d'/ a'/f'/=b'/f'/ g'/b'/g'/=e'/ | =b/=e'/g/b/ =e/g/^f/e/ f/a/f/d/ | %159
 A/d/^F/A/ D/F/A/c/ =B/G/d'/d'/ | d'/=b/g/d/ =B/G/D/G/ A/^F/d'/d'/ | %161
 d'/a/^f/d/ A/^F/D/F/ G/=E/d'/d'/ | d'/=b/g/=e/ g/^c'/=e'/c'/ d'/a/d'/d'/ | %163
 d'/^f/a/a/ a/d/f/c/ =B/G/d/d/ | d/=B/G/B/ d/g/=b/=E/ ^F/A/d/d/ | d/A/^F/A/ d/^f/a/D/ =E/G/d/d/ | %166
 d/G/=E/G/ ^c/=e/g/A/ D/A/d/d/ | d/A/d/^f/ a/f/d/=c/ =B/D/D/D/ | D/d'/d'/=b/ b/g/g/b/ a/ z3/2 | %169
 z/ d'/d'/a/ a/^f/f/a/ g/ z3/2 | z/ =e'/e'/^c'/ c'/a/a/c'/ d'/ z3/2 | %171
 z/ d'/d'/d'/ d'/=c'/c'/c'/ =b/G/G/G/ | G/d/d/d/ =e/e/^f/f/ g/G/G/G/ | %173
 G/g'/g'/g'/ g'/f'/f'/f'/ =e'/G/G/G/ | G/=e'/e'/e'/ ^f'/g'/g'/g'/ z2 | =b/ z3/2 a/ z3/2{/g} b2 | %176
 =b3 b ba | a3 a ag | ^f3 f f=e | ^f{/d}=e'{/=e} d'{/f}c'{/g} =b2 | =b3 b a2 | a3 a d'=b | %182
 =e'd' c'=b ag |{/A} ^f3 g g2 |{/=B} d3{/B} d{/B} d2 |{/=B} d3{/B} d{/c} =e2 | %186
{/c} =e3{/c} e{/c} ^f{/=B}g | g3 ^f g2 |{/d} =b3{/d} b{/d} b2 |{/d} =b3{/d} b{/g} b2 | %190
{/d} a3{/d} a{/d} ag |{/A} g3 ^f g2 |{/g} =b3{/g} b{/g} c'2 |{/g} d'3{/g} d'{/g} =e'2 | %194
{/a} =e'3{/a} e'{/a} ^f'{/=b}g' | g'2 ^f'2 g'2 |{/=b} g'3{/b} g'{/a} ^f'2 |{/=b} f'3{/b} f' z g | %198
 a3 a{/g} a=b |{/^f} c'=e' d'{/f}c' G/=b/b/G/ | G/d/d/G/ ^F/d/d/F/ =E/=e/e/E/ | %201
 G/=b/b/G/ G/b/b/G/ G/a/a/G/ | A/d'/d'/A/ A/^f/f/A/ A/=e'/e'/A/ | %203
 A/a/A/=b/ A/=c'/c'/A/ g/c'/c'/g/ | d/=b/=e/b/ f/b/b/f/ G/b/b/G/ | A/=e/A/^f/ A/g/g/A/ A/a/a/A/ | %206
 A/a/=B/a/ c/a/a/c/ B/g/A/=e'/ | ^f3 g g2 |{/G} e3 e{/F} e>a | e/c/d/A/ F{/F}d{/E} d>g | %210
 d/=B/c/G/ E z2 z/ a/ | ^f/d/_e/c/ ^F{/A}d{/G} B>G | B/d/g/^f/ g/a/b/d/{/G} b>G | %213
 c/e/_a/g/ a/=f/B/D/{/B} a>^f | g/d/e/=B/ c/G/_A/c/ ^fg | g>=e ^f/a/c'/d/ G/d/f/c'/ | %216
 b/g/^f/g/ G/g/f/g/ A/c/f/d'/ | c'/g/^f/g/ A/g/f/g/ B/d/f/e'/ | d'/g/^f/g/ B/g/f/g/ c/e/g/e'/ | %219
 a/g/^f/g/ d/g/f/a/ b/g/d/c/ | B/d/G/F/ =E/c/g/b/ a/f/c/B/ | A/c/F/_E/ D/B/f/_a/ g/e/B/_A/ | %222
 G/B/E/D/ C/^F/A/e/ d/B/G/e/ | c/A/^F/A/ D/c/B/A/ G/d/=e/^f/ | %224
 g/b/c'/d'/ _e'/c/4B/4A/4B/4c/ F/c/d/_e/ | =f/a/b/c'/ d'/B/4A/4G/4A/4B/ E/g'/4f'/4e'/4f'/4g'/ | %226
 c'/e'/4d'/4c'/4d'/4e'/ a/c'/4b/4a/4b/4c'/ ^f/a/4g/4f/4g/4a/4f/4 | %227
 c/e/4d/4c/4d/4e/4c/4 A/4G/4^F/4G/4A/4B/4c/4A/4 B/d/d/d/ | e/d/d/d/ c/d/B/d/ A/d/e/d/ | %229
 d/d/c/d/ B/d/A/d/ G/d/d/d/ | c/d/B/d/ A/d/G/d/ A/d/B/d/ | c/d/e/d/ d/d/c/d/ B/d/d/d/ | %232
 ^c/d/=c/d/ =B/d/_B/d/ A/d/c/d/ | =B/d/_B/d/ A/d/_A/d/ G/d/=A/d/ | B/d/=B/d/ c/d/^c/d/ D/d/=E/d/ | %235
 F/d/^F/d/ =e/d/^f/d/ g/d/=f/d/ | _e/d/e/d/ e/d/e/d/ e/d/e/d/ | B/d/A/d/ G/d/F/d/ G/d/=E/d/ | %238
 c/d/c/d/ c/d/c/d/ c/d/A/d/ | d/d/c/d/ B/d/A/d/ B/d/(3G/B/d/ | %240
 (3B/d/g/(3d/g/b/ (3e/g/c'/(3c/g/e'/ (3A/f/e'/(3F/A/c/ | %241
 (3A/c/f/(3c/f/a/ (3d/f/b/(3B/f/d'/ (3G/e/d'/(3E/G/B/ | %242
 (3G/B/e/(3B/e/g/ (3c/e/_a/(3_A/e/c'/ (3=A/^f/e'/(3B/g/d'/ | %243
 (3c/=a/c'/(3^c/g/b/ (3d/g/a/(3d/^f/a/ (3G/d'/c'/(3b/b/a/ | %244
 (3g/g/=f/(3e/e/d/ (3c/e/f/(3g/a/b/ (3F/c'/b/(3a/a/g/ | %245
 (3f/f/e/(3d/d/c/ (3B/d/e/(3f/g/_a/ (3E/b/a/(3g/g/f/ | %246
 (3e/e/d/(3c/c/B/ (3=A/A/G/(3^F/F/=E/ D/E/4F/4G/4A/4B/4c/4 | %247
 d/4=e/4^f/4g/4a/4b/4c'/4b/4 a/4g/4f/4e/4d/4c/4B/4A/4 G2 |{/B} d3 d{/c} a2 |{/c} a3 a{/B} b2 | %250
{/B} g3 f{/c} e2 |{/B} d2{/^F} c/B/A/B/ c/A/B/G/ |{/B} e2{/=B} d2{/c} g2 | %253
{/=B} f2{/c} e2 ^F/A/c/e/ | d/c/a/c/ _B2 BA | TA3 G G2- | G4 z2 |] %257
V:2
 x6 | x6 | x6 | x6 | x6 | x6 | x6 | x11/2 A/ | B3/2c/4d/4 e>d x2 | x6 | x6 | x6 | x6 | x6 | x6 | %15
 x4 G3/2 x/ | x6 | x6 | x6 | x6 | x6 | x6 | x6 | x6 | x6 | x6 | x6 | x6 | x6 | x6 | x6 | x6 | x6 | %33
 x6 | x6 | x6 | x6 | x6 | x6 | x6 | x6 | x6 | x6 | x6 | x6 | x6 | x6 | x6 | x6 | x6 | x6 | x6 | %52
 x6 | x6 | x6 | x5 d | G x3/2 d/e/c/ x c | F x3/2 c/d/B/ x B | E x5 | x9/2 ^f/g/d/ | %60
 B/A/B/G/ x5/2 =e/f/c/ | A/G/A/F/ x2 B/_A/B/G/ | G/F/G/E/ x4 | x6 | x6 | x6 | x6 | x6 | x6 | x6 | %70
 x6 | x6 | x6 | x6 | x6 | x6 | x6 | x6 | x6 | x6 | x6 | x6 | x6 | x6 | x6 | x6 | x6 | x6 | x6 | %89
 x6 | x6 | x6 | x6 | x6 | x6 | x6 | x6 | x6 | x6 | x6 | x6 | x6 | x6 | x6 | x6 | x6 | x6 | x6 | %108
 x6 | x6 | x6 | x6 | x6 | x6 | x6 | x6 | x6 | x6 | x6 | x6 | x6 | x6 | x6 | x6 | x6 | x6 | x6 | %127
 x6 | x6 | x6 | x6 | x6 | x6 | x6 | x6 | x6 | x5 =E | x5 D | x6 | x6 | x6 | x6 | x6 | x6 | x6 | %145
 x6 | x6 | a4 x2 | x9/2 G/^F/=E/ | D/^F/A/=c/ x5/2 F/G/=E/ | C/=E/G/=B/ x4 | x6 | x6 | x6 | x6 | %155
 x6 | x6 | x6 | x6 | x6 | x6 | x6 | x6 | x6 | x6 | x6 | x6 | x6 | x9/2 D/D/D/ | D/ x4 D/D/D/ | %170
 D/ x4 D/D/D/ | D/ x11/2 | x6 | x6 | x4 =b/a/a/a/ | x/ g/g/g/ x/ ^f/f/f/ x2 | x6 | x6 | x6 | x6 | %180
 x6 | x6 | x6 | x6 | x6 | x6 | x6 | x6 | x6 | x6 | x6 | x6 | x6 | x6 | x6 | x6 | x6 | %197
 x4{/c'} =e'2 | x6 | x6 | x6 | x6 | x6 | x6 | x6 | x6 | x6 | x6 | x6 | x6 | x3 E D3/2 x/ | x6 | %212
 x6 | x6 | x6 | x6 | x6 | x6 | x6 | x6 | x6 | x6 | x6 | x6 | x6 | x6 | x6 | x6 | x6 | x6 | x6 | %231
 x6 | x6 | x6 | x6 | x6 | x6 | x6 | x6 | x6 | x6 | x6 | x6 | x6 | x6 | x6 | x6 | x6 | x6 | x6 | %250
 x6 | x6 | x6 | x6 | x6 | x4 G2- | G4 x2 |] %257

